dist/svgs/weibo.svg

<svg xmlns="http://www.w3.org/2000/svg" viewBox="0 0 512 512"><path d="M379 249q7 2 20.5 8.5t24 20 13.5 34-10 49.5-39 51-58.5 35.5-68 19.5-66.5 3q-30-3-63-10t-61-23-47.5-41T0 332q-2-14 2-31 3-14 10.5-33.5T36 225q18-26 40-49 18-20 42.5-39t51.5-29 43-8 24 10.5 10.5 20T250 152q-3 16-3.5 24.5t19.5.5q7-3 17-7 8-3 18-5t21-4h10l10 1q14 2 23 12t10.5 21-.5 20q-1 5-2 8t-2 5-2 5-2 5q-2 6 4 8zM201 441q31-1 59-11.5t48-27 32-37.5 12-43-12-39.5-32-29.5-48-18-59-4q-32 2-60 11t-48.5 23.5-32.5 34T48 341q0 23 12 42t32.5 32.5T141 436t60 5zm-17-171q31-4 50.5 7.5t27.5 30 6.5 39T258 380q-20 26-54.5 35.5T132 403q-9-5-14-11.5t-7-12.5q-3-7-2-15-1-24 6-43 6-17 21.5-32t47.5-19zm-21 117q11-2 19.5-10t8.5-19-8-18-22-5q-11 2-19 10.5t-8 19.5 8.5 17.5T163 387zm49-45q5-3 6-8t-1-9q-5-9-16-1-4 3-4.5 8t1.5 9q5 8 14 1zm208-130q-14 0-14-14 3-19-1-32-3-11-13.5-18t-33.5-2q-6 0-10-4.5t-4-10.5q0-14 14-14 24-3 42 4 15 6 26.5 23t7.5 54v2q-2 12-14 12zM410 41q20 5 41.5 18T489 94t21.5 54.5T504 225h-1q-2 13-7 15.5t-12 2.5q-8 0-14-5t-6-14q0-6 2-14 1-4 2-6 1-5 4-23.5T462 132q-8-15-22-27-3-3-9-7-23-16-43.5-18T362 80q-3 2-6 2t-6 1-6 1q-8 0-14-6t-6-15q0-16 15-21 1 0 1-.5t1-.5q7-2 26.5-4t42.5 4z"/></svg>

<?xml version="1.0" encoding="UTF-8" standalone="no"?><svg   xmlns:svg="http://www.w3.org/2000/svg"   xmlns="http://www.w3.org/2000/svg"   version="1.1"   width="512"   height="512"   viewBox="0 0 512 512">  <path     d="M379 249Q386 251 399.5 257.5T423.5 277.5T437 311.5T427 361T388 412T329.5 447.5T261.5 467T195 470Q165 467 132 460T71 437T23.5 396T0 332Q-2 318 2 301Q5 287 12.5 267.5T36 225Q54 199 76 176Q94 156 118.5 137T170 108T213 100T237 110.5T247.5 130.5T250 152Q247 168 246.5 176.5T266 177Q273 174 283 170Q291 167 301 165T322 161H332T342 162Q356 164 365 174T375.5 195T375 215Q374 220 373 223T371 228Q370 231 369 233T367 238Q365 244 371 246zM201 441Q232 440 260 429.5T308 402.5T340 365T352 322T340 282.5T308 253T260 235T201 231Q169 233 141 242T92.5 265.5T60 299.5T48 341Q48 364 60 383T92.5 415.5T141 436T201 441zM184 270Q215 266 234.5 277.5T262 307.5T268.5 346.5T258 380Q238 406 203.5 415.5T132 403Q123 398 118 391.5T111 379Q108 372 109 364Q108 340 115 321Q121 304 136.5 289T184 270zM163 387Q174 385 182.5 377T191 358T183 340T161 335Q150 337 142 345.5T134 365T142.5 382.5T163 387zM212 342Q217 339 218 334T217 325Q212 316 201 324Q197 327 196.5 332T198 341Q203 349 212 342zM420 212Q406 212 406 198Q409 179 405 166Q402 155 391.5 148T358 146Q352 146 348 141.5T344 131Q344 117 358 117Q382 114 400 121Q415 127 426.5 144T434 198V200Q432 212 420 212zM410 41Q430 46 451.5 59T489 94T510.5 148.5T504 225H503Q501 238 496 240.5T484 243Q476 243 470 238T464 224Q464 218 466 210Q467 206 468 204Q469 199 472 180.5T462 132Q454 117 440 105Q437 102 431 98Q408 82 387.5 80T362 80Q359 82 356 82T350 83Q346 84 344 84Q336 84 330 78T324 63Q324 47 339 42Q340 42 340 41.5T341 41Q348 39 367.5 37T410 41z"     id="weibo" /></svg>
